storage/app/icons/tabler/filled/square-f6.svg

<!--
version: "2.4"
unicode: "f774"
-->
<svg
  xmlns="http://www.w3.org/2000/svg"
  width="24"
  height="24"
  viewBox="0 0 24 24"
  fill="currentColor"
>
  <path d="M18.333 2c1.96 0 3.56 1.537 3.662 3.472l.005 .195v12.666c0 1.96 -1.537 3.56 -3.472 3.662l-.195 .005h-12.666a3.667 3.667 0 0 1 -3.662 -3.472l-.005 -.195v-12.666c0 -1.96 1.537 -3.56 3.472 -3.662l.195 -.005h12.666zm-3.083 6h-1.25l-.15 .005a2 2 0 0 0 -1.844 1.838l-.006 .157v4l.005 .15a2 2 0 0 0 1.838 1.844l.157 .006h1l.15 -.005a2 2 0 0 0 1.844 -1.838l.006 -.157v-1l-.005 -.15a2 2 0 0 0 -1.838 -1.844l-.157 -.006h-1v-1h1.032l.026 .087a1 1 0 0 0 1.942 -.337a1.75 1.75 0 0 0 -1.606 -1.744l-.144 -.006zm-5.25 0h-2l-.117 .007a1 1 0 0 0 -.876 .876l-.007 .117v6l.007 .117a1 1 0 0 0 .876 .876l.117 .007l.117 -.007a1 1 0 0 0 .876 -.876l.007 -.117v-2h1l.117 -.007a1 1 0 0 0 0 -1.986l-.117 -.007h-1v-1h1l.117 -.007a1 1 0 0 0 0 -1.986l-.117 -.007zm5 5v1h-1v-1h1z" />
</svg>

<svg xmlns="http://www.w3.org/2000/svg" width="24" height="24" fill="currentColor" viewBox="0 0 24 24"><path d="M18.333 2c1.96 0 3.56 1.537 3.662 3.472l.005.195v12.666c0 1.96-1.537 3.56-3.472 3.662l-.195.005H5.667a3.667 3.667 0 0 1-3.662-3.472L2 18.333V5.667c0-1.96 1.537-3.56 3.472-3.662L5.667 2zM15.25 8H14l-.15.005a2 2 0 0 0-1.844 1.838L12 10v4l.005.15a2 2 0 0 0 1.838 1.844L14 16h1l.15-.005a2 2 0 0 0 1.844-1.838L17 14v-1l-.005-.15a2 2 0 0 0-1.838-1.844L15 11h-1v-1h1.032l.026.087A1 1 0 0 0 17 9.75a1.75 1.75 0 0 0-1.606-1.744zM10 8H8l-.117.007a1 1 0 0 0-.876.876L7 9v6l.007.117a1 1 0 0 0 .876.876L8 16l.117-.007a1 1 0 0 0 .876-.876L9 15v-2h1l.117-.007a1 1 0 0 0 0-1.986L10 11H9v-1h1l.117-.007a1 1 0 0 0 0-1.986zm5 5v1h-1v-1z"/></svg>
